X:108
T: Nit verstan
N: A0469
O: Europa, Mitteleuropa, Deutschland
N: Forster II 1540 No. 35.
R: Romanze, Ballade, Lied
M: 3/1
L: 1/2
K: G
D2 | G3GG2 | A4B2 | c4c2 | A4
A2 | B2B2A2 | G4
G2 | B4c2 | d4d2 | d3cB2 | A4
B2 | c4B2 | G4B2 | c2c2A2 | G4
B2 | c4A2 | G4B2 | c3BA2 | G4
G2 | G2G2A2 | B4c2 | d4B2 | c2A4 | G4

@@@ Tune index: 421
